src/assets/images/events/spellbee.svg

<svg xmlns="http://www.w3.org/2000/svg" xmlns:xlink="http://www.w3.org/1999/xlink" width="500" zoomAndPan="magnify" viewBox="0 0 375 374.999991" height="500" preserveAspectRatio="xMidYMid meet" version="1.0"><defs><g/><clipPath id="dc1787ef72"><path d="M 94.457031 67.972656 L 280.410156 67.972656 L 280.410156 242.722656 L 94.457031 242.722656 Z M 94.457031 67.972656 " clip-rule="nonzero"/></clipPath></defs><rect x="-37.5" width="450" fill="#ffffff" y="-37.499999" height="449.999989" fill-opacity="1"/><rect x="-37.5" width="450" fill="#000000" y="-37.499999" height="449.999989" fill-opacity="1"/><g clip-path="url(#dc1787ef72)"><path fill="#ffffff" d="M 125.726562 185.195312 C 126.253906 185.769531 126.25 186.703125 125.71875 187.273438 C 125.183594 187.847656 124.324219 187.84375 123.796875 187.261719 C 122.253906 185.574219 120.816406 184.824219 119.5 185.042969 C 117.285156 185.414062 115.863281 188.359375 115.847656 188.390625 C 115.605469 188.898438 115.128906 189.191406 114.636719 189.191406 C 114.429688 189.191406 114.222656 189.140625 114.023438 189.03125 C 113.355469 188.660156 113.089844 187.78125 113.425781 187.054688 C 113.511719 186.882812 115.476562 182.746094 119.070312 182.136719 C 121.289062 181.757812 123.53125 182.785156 125.726562 185.195312 Z M 273.035156 157.007812 C 264.746094 169.875 238.628906 180.726562 189.941406 173.601562 C 201.527344 165.238281 210.683594 154.546875 217.074219 143.492188 C 217.324219 143.375 217.546875 143.199219 217.738281 142.976562 C 217.929688 142.742188 236.773438 120.554688 254.441406 121.039062 C 260.875 121.234375 266.5 124.515625 271.089844 130.699219 C 277.304688 139.945312 277.996094 149.292969 273.035156 157.007812 Z M 235.816406 192.648438 C 237.097656 194.085938 238.289062 195.597656 239.378906 197.207031 C 239.925781 198.015625 240.441406 198.839844 240.9375 199.675781 C 241.285156 204.378906 241.097656 217.691406 229.96875 231.242188 C 228.359375 232.136719 226.652344 232.988281 224.847656 233.765625 C 223.390625 234.402344 221.859375 234.992188 220.269531 235.53125 C 232.371094 217.703125 235.183594 200.652344 235.816406 192.648438 Z M 202.425781 238.734375 C 199.820312 238.820312 197.15625 238.707031 194.445312 238.382812 C 194.085938 238.335938 193.714844 238.28125 193.351562 238.230469 C 215.097656 211.03125 213.949219 186.144531 213.1875 179.9375 C 214.375 179.976562 215.5625 179.945312 216.738281 180.121094 C 218.652344 180.410156 220.441406 181.175781 222.183594 181.996094 C 222.46875 182.132812 222.753906 182.273438 223.039062 182.414062 C 222.976562 188.425781 221.503906 214.457031 202.425781 238.734375 Z M 176.882812 233.257812 C 173.722656 231.75 170.785156 229.988281 168.054688 228.105469 C 188.4375 205.542969 190.402344 184.183594 190.003906 177.832031 C 192.953125 178.273438 195.832031 178.625 198.667969 178.914062 C 198.730469 183.253906 198.289062 212.300781 176.882812 233.257812 Z M 155.226562 217.054688 C 152.867188 214.589844 150.910156 212.265625 149.363281 210.296875 C 149.425781 210.222656 149.496094 210.15625 149.554688 210.078125 C 152.867188 205.800781 156.574219 201.675781 158.441406 196.578125 C 160.304688 191.488281 161.5 186.183594 161.832031 180.792969 C 161.855469 180.414062 161.9375 173.484375 161.46875 173.582031 C 164.921875 172.878906 168.902344 172.179688 172.703125 171.800781 C 173.230469 177.941406 173.730469 200.679688 155.226562 217.054688 Z M 142.375 203.214844 C 140.707031 203.945312 134.496094 206.28125 125.007812 205.324219 C 117.304688 204.550781 110.316406 197.421875 108.386719 188.378906 C 106.453125 179.3125 110.210938 171.277344 118.429688 166.898438 C 133.773438 158.800781 145.871094 170.265625 149.191406 173.925781 C 149.171875 177.289062 148.785156 192.75 142.375 203.214844 Z M 155.492188 88.753906 C 158.285156 84.476562 162.691406 80.804688 166.988281 78.125 C 171.320312 75.421875 176.164062 73.539062 181.199219 72.6875 C 191.410156 70.957031 202.238281 73.636719 210.15625 80.359375 C 215.105469 84.558594 218.75 90.117188 221.019531 96.175781 C 221.050781 96.25 221.078125 96.308594 221.109375 96.382812 C 229.972656 114.152344 215.675781 151.5625 184.6875 172.171875 C 176.910156 164.898438 133.746094 122.070312 155.492188 88.753906 Z M 274.523438 128.285156 C 269.058594 120.921875 262.347656 117.082031 254.558594 116.859375 C 254.308594 116.84375 254.074219 116.84375 253.820312 116.84375 C 241.925781 116.84375 230.195312 125.222656 222.699219 131.964844 C 228.46875 117.625 229.425781 103.785156 224.90625 94.597656 C 219.414062 80.023438 207.84375 70.46875 193.136719 68.378906 C 177.691406 66.183594 161.980469 73.03125 152.042969 86.355469 C 132.453125 116.367188 159.21875 151.574219 174.199219 167.628906 C 165.753906 168.210938 156.023438 170.566406 152.496094 171.476562 C 149.996094 168.75 142.652344 161.699219 132.609375 160.308594 C 133.40625 157.890625 137.84375 143.183594 131.800781 131.308594 C 130.351562 128.453125 128.339844 125.902344 125.886719 123.84375 C 123.230469 121.613281 120.25 120.300781 117.121094 118.933594 C 115.371094 118.167969 112.945312 117.835938 111.289062 119.050781 C 109.75 120.179688 109.191406 122.398438 109.644531 124.191406 C 110.308594 126.832031 112.847656 128.46875 115.3125 127.847656 C 116.851562 127.460938 117.996094 126.285156 118.480469 124.8125 C 122.523438 126.835938 125.535156 129.742188 127.449219 133.496094 C 132.96875 144.316406 127.957031 158.863281 127.90625 159.007812 C 127.777344 159.371094 127.742188 159.710938 127.628906 160.109375 C 126.34375 160.179688 125.191406 160.351562 123.847656 160.640625 C 123.464844 156.410156 121.53125 141.753906 112.808594 136.28125 C 109.558594 134.242188 105.703125 133.867188 101.996094 134.644531 C 98.707031 135.332031 94.539062 136.503906 94.460938 140.554688 C 94.460938 140.589844 94.457031 140.625 94.457031 140.664062 C 94.457031 143.382812 96.519531 145.589844 99.0625 145.589844 C 101.601562 145.589844 103.664062 143.382812 103.664062 140.664062 C 103.664062 140.167969 103.574219 139.703125 103.449219 139.253906 C 106.027344 138.816406 108.265625 139.183594 110.214844 140.40625 C 116.753906 144.503906 118.820312 157.402344 119.0625 162.027344 C 119.066406 162.0625 119.078125 162.097656 119.082031 162.132812 C 118.195312 162.5 117.304688 162.902344 116.398438 163.382812 C 106.492188 168.664062 101.960938 178.308594 104.28125 189.183594 C 106.566406 199.898438 115.101562 208.371094 124.570312 209.320312 C 126.304688 209.496094 127.945312 209.570312 129.480469 209.570312 C 135.339844 209.570312 139.695312 208.476562 142.253906 207.59375 C 142.582031 208.09375 144.136719 210.574219 144.609375 210.949219 C 150.675781 219.136719 165.515625 236.160156 187.246094 241.203125 C 195.457031 243.113281 204.230469 243.207031 212.507812 241.6875 C 213.53125 241.496094 214.554688 241.285156 215.574219 241.046875 C 215.589844 241.046875 215.617188 241.046875 215.632812 241.035156 C 215.660156 241.035156 215.675781 241.019531 215.707031 241.019531 C 229.707031 237.746094 241.25 230.277344 246.503906 222.640625 L 258.84375 221.570312 C 259.710938 221.5 260.449219 220.921875 260.683594 220.101562 C 260.917969 219.296875 260.59375 218.4375 259.886719 217.941406 L 249.597656 210.773438 C 249.550781 210.742188 249.507812 210.714844 249.449219 210.6875 C 249.007812 207.1875 247.683594 203.320312 245.503906 199.296875 C 241.734375 192.351562 234.976562 184.585938 226.835938 179.875 C 226.8125 179.859375 226.789062 179.847656 226.765625 179.832031 C 250.972656 178.628906 268.644531 171.574219 276.554688 159.277344 C 282.472656 150.058594 281.78125 139.089844 274.523438 128.285156 " fill-opacity="1" fill-rule="nonzero"/></g><g fill="#ffffff" fill-opacity="1"><g transform="translate(67.342728, 297.345655)"><g><path d="M 12.226562 -26.726562 C 7.023438 -26.726562 2.316406 -23.878906 2.316406 -18.832031 C 2.316406 -13.589844 5.808594 -11.730469 11.769531 -10.25 C 14.996094 -9.453125 15.984375 -8.277344 15.984375 -6.910156 C 15.984375 -5.46875 14.539062 -4.480469 12.640625 -4.480469 C 10.59375 -4.480469 8.582031 -5.542969 8.125 -8.011719 L 1.289062 -8.011719 C 1.707031 -2.125 6.1875 0.53125 12.832031 0.53125 C 18.109375 0.53125 23.121094 -2.125 23.121094 -7.363281 C 23.121094 -11.390625 20.765625 -14.273438 14.996094 -15.640625 C 10.667969 -16.667969 9.453125 -17.691406 9.453125 -19.363281 C 9.453125 -20.957031 10.515625 -21.714844 12.074219 -21.714844 C 14.3125 -21.714844 15.453125 -20.273438 15.753906 -18.109375 L 22.589844 -18.109375 C 22.019531 -22.96875 19.132812 -26.726562 12.226562 -26.726562 Z M 12.226562 -26.726562 "/></g></g></g><g fill="#ffffff" fill-opacity="1"><g transform="translate(94.900528, 297.345655)"><g><path d="M 17.007812 -26.007812 C 15.605469 -26.15625 14.539062 -26.195312 12.90625 -26.195312 L 3.039062 -26.195312 L 3.039062 0 L 9.871094 0 L 9.871094 -9.1875 L 12.90625 -9.1875 C 14.539062 -9.1875 15.605469 -9.226562 17.007812 -9.378906 C 20.804688 -9.832031 24.257812 -12.527344 24.257812 -17.691406 C 24.257812 -22.855469 20.804688 -25.550781 17.007812 -26.007812 Z M 14.351562 -14.539062 C 13.855469 -14.503906 13.25 -14.503906 12.527344 -14.503906 L 9.871094 -14.503906 L 9.871094 -20.878906 L 12.527344 -20.878906 C 13.25 -20.878906 13.855469 -20.878906 14.351562 -20.84375 C 16.097656 -20.691406 17.121094 -19.664062 17.121094 -17.691406 C 17.121094 -15.71875 16.097656 -14.691406 14.351562 -14.539062 Z M 14.351562 -14.539062 "/></g></g></g><g fill="#ffffff" fill-opacity="1"><g transform="translate(123.141552, 297.345655)"><g><path d="M 23.121094 -5.316406 L 9.871094 -5.316406 L 9.871094 -10.476562 L 21.980469 -10.476562 L 21.980469 -15.792969 L 9.871094 -15.792969 L 9.871094 -20.878906 L 22.742188 -20.878906 L 22.742188 -26.195312 L 3.039062 -26.195312 L 3.039062 0 L 23.121094 0 Z M 23.121094 -5.316406 "/></g></g></g><g fill="#ffffff" fill-opacity="1"><g transform="translate(151.192787, 297.345655)"><g><path d="M 23.121094 -5.769531 L 9.871094 -5.769531 L 9.871094 -26.195312 L 3.039062 -26.195312 L 3.039062 0 L 23.121094 0 Z M 23.121094 -5.769531 "/></g></g></g><g fill="#ffffff" fill-opacity="1"><g transform="translate(178.826496, 297.345655)"><g><path d="M 23.121094 -5.769531 L 9.871094 -5.769531 L 9.871094 -26.195312 L 3.039062 -26.195312 L 3.039062 0 L 23.121094 0 Z M 23.121094 -5.769531 "/></g></g></g><g fill="#ffffff" fill-opacity="1"><g transform="translate(206.460211, 297.345655)"><g/></g></g><g fill="#ffffff" fill-opacity="1"><g transform="translate(216.937356, 297.345655)"><g><path d="M 20.046875 -14.238281 C 22.628906 -15.148438 23.878906 -16.96875 23.878906 -19.363281 C 23.878906 -22.777344 21.449219 -25.511719 17.121094 -26.042969 C 15.792969 -26.195312 15.1875 -26.195312 13.78125 -26.195312 L 3.039062 -26.195312 L 3.039062 0 L 13.476562 0 C 15.148438 0 16.019531 0 17.351562 -0.152344 C 20.878906 -0.570312 24.867188 -3 24.867188 -7.898438 C 24.867188 -11.085938 23.347656 -13.289062 20.046875 -14.238281 Z M 9.871094 -20.878906 L 12.945312 -20.878906 C 13.554688 -20.878906 14.160156 -20.84375 14.65625 -20.765625 C 15.945312 -20.578125 16.742188 -19.855469 16.742188 -18.375 C 16.742188 -16.820312 15.871094 -16.171875 14.617188 -15.984375 C 14.121094 -15.90625 13.554688 -15.871094 12.945312 -15.871094 L 9.871094 -15.871094 Z M 15.261719 -5.351562 C 14.769531 -5.316406 14.160156 -5.316406 13.554688 -5.316406 L 9.871094 -5.316406 L 9.871094 -10.933594 L 13.363281 -10.933594 C 13.972656 -10.933594 14.578125 -10.933594 15.070312 -10.894531 C 16.476562 -10.78125 17.730469 -9.871094 17.730469 -8.125 C 17.730469 -6.417969 16.476562 -5.429688 15.261719 -5.351562 Z M 15.261719 -5.351562 "/></g></g></g><g fill="#ffffff" fill-opacity="1"><g transform="translate(246.582782, 297.345655)"><g><path d="M 23.121094 -5.316406 L 9.871094 -5.316406 L 9.871094 -10.476562 L 21.980469 -10.476562 L 21.980469 -15.792969 L 9.871094 -15.792969 L 9.871094 -20.878906 L 22.742188 -20.878906 L 22.742188 -26.195312 L 3.039062 -26.195312 L 3.039062 0 L 23.121094 0 Z M 23.121094 -5.316406 "/></g></g></g><g fill="#ffffff" fill-opacity="1"><g transform="translate(274.634012, 297.345655)"><g><path d="M 23.121094 -5.316406 L 9.871094 -5.316406 L 9.871094 -10.476562 L 21.980469 -10.476562 L 21.980469 -15.792969 L 9.871094 -15.792969 L 9.871094 -20.878906 L 22.742188 -20.878906 L 22.742188 -26.195312 L 3.039062 -26.195312 L 3.039062 0 L 23.121094 0 Z M 23.121094 -5.316406 "/></g></g></g></svg>

<svg xmlns="http://www.w3.org/2000/svg" xmlns:xlink="http://www.w3.org/1999/xlink" width="500" zoomAndPan="magnify" viewBox="0 0 375 375" height="500" preserveAspectRatio="xMidYMid meet" xmlns:v="https://vecta.io/nano"><defs><clipPath id="A"><path d="M94.457 67.973H280.41v174.75H94.457zm0 0" clip-rule="nonzero"/></clipPath><path id="B" d="M146.263 292.03h-13.25v-5.16h12.109v-5.316h-12.109v-5.086h12.871v-5.316h-19.703v26.195h20.082zm0 0"/></defs><path fill="#fff" d="M-37.5-37.5h450v450h-450z"/><path d="M-37.5-37.5h450v450h-450z"/><g clip-path="url(#A)"><path fill="#fff" d="M125.727 185.195a1.56 1.56 0 0 1-.008 2.078 1.28 1.28 0 0 1-1.922-.012c-1.543-1.687-2.98-2.437-4.297-2.219-2.215.371-3.637 3.316-3.652 3.348-.242.508-.719.801-1.211.801a1.26 1.26 0 0 1-.613-.16c-.668-.371-.934-1.25-.598-1.977.086-.172 2.051-4.309 5.645-4.918 2.219-.379 4.461.648 6.656 3.059zm147.309-28.187c-8.289 12.867-34.406 23.719-83.094 16.594 11.586-8.363 20.742-19.055 27.133-30.109.25-.117.473-.293.664-.516.191-.234 19.035-22.422 36.703-21.937 6.434.195 12.059 3.477 16.648 9.66 6.215 9.246 6.906 18.594 1.945 26.309zm-37.219 35.641a43.52 43.52 0 0 1 3.563 4.559c.547.809 1.063 1.633 1.559 2.469.348 4.703.16 18.016-10.969 31.566a56.77 56.77 0 0 1-5.121 2.523c-1.457.637-2.988 1.227-4.578 1.766 12.102-17.828 14.914-34.879 15.547-42.883zm-33.391 46.086c-2.605.086-5.27-.027-7.98-.352l-1.094-.152c21.746-27.199 20.598-52.086 19.836-58.293 1.188.039 2.375.008 3.551.184 1.914.289 3.703 1.055 5.445 1.875l.855.418c-.062 6.012-1.535 32.043-20.613 56.32zm-25.543-5.477c-3.16-1.508-6.098-3.27-8.828-5.152 20.383-22.562 22.348-43.922 21.949-50.273 2.949.441 5.828.793 8.664 1.082.063 4.34-.379 33.387-21.785 54.344zm-21.656-16.203c-2.359-2.465-4.316-4.789-5.863-6.758.063-.074.133-.141.191-.219 3.313-4.277 7.02-8.402 8.887-13.5 1.863-5.09 3.059-10.395 3.391-15.785.023-.379.105-7.309-.363-7.211 3.453-.703 7.434-1.402 11.234-1.781.527 6.141 1.027 28.879-17.477 45.254zm-12.852-13.84c-1.668.73-7.879 3.066-17.367 2.109-7.703-.773-14.691-7.902-16.621-16.945-1.934-9.066 1.824-17.102 10.043-21.48 15.344-8.098 27.441 3.367 30.762 7.027-.02 3.363-.406 18.824-6.816 29.289zm13.117-114.461c2.793-4.277 7.199-7.949 11.496-10.629 4.332-2.703 9.176-4.586 14.211-5.437 10.211-1.73 21.039.949 28.957 7.672 4.949 4.199 8.594 9.758 10.863 15.816l.09.207c8.863 17.77-5.434 55.18-36.422 75.789-7.777-7.273-50.941-50.102-29.195-83.418zm119.031 39.531c-5.465-7.363-12.176-11.203-19.965-11.426-.25-.016-.484-.016-.738-.016-11.895 0-23.625 8.379-31.121 15.121 5.77-14.34 6.727-28.18 2.207-37.367-5.492-14.574-17.062-24.129-31.77-26.219-15.445-2.195-31.156 4.652-41.094 17.977-19.59 30.012 7.176 65.219 22.156 81.273-8.445.582-18.176 2.938-21.703 3.848-2.5-2.727-9.844-9.777-19.887-11.168.797-2.418 5.234-17.125-.809-29-1.449-2.855-3.461-5.406-5.914-7.465-2.656-2.23-5.637-3.543-8.766-4.91-1.75-.766-4.176-1.098-5.832.117-1.539 1.129-2.098 3.348-1.645 5.141.664 2.641 3.203 4.277 5.668 3.656 1.539-.387 2.684-1.562 3.168-3.035 4.043 2.023 7.055 4.93 8.969 8.684 5.52 10.82.508 25.367.457 25.512-.129.363-.164.703-.277 1.102-1.285.07-2.437.242-3.781.531-.383-4.23-2.316-18.887-11.039-24.359-3.25-2.039-7.105-2.414-10.812-1.637-3.289.688-7.457 1.859-7.535 5.91 0 .035-.004.07-.004.109 0 2.719 2.063 4.926 4.605 4.926s4.602-2.207 4.602-4.926c0-.496-.09-.961-.215-1.41 2.578-.437 4.816-.07 6.766 1.152 6.539 4.098 8.605 16.996 8.848 21.621.004.035.016.07.02.105-.887.367-1.777.77-2.684 1.25-9.906 5.281-14.437 14.926-12.117 25.801 2.285 10.715 10.82 19.188 20.289 20.137a48.69 48.69 0 0 0 4.91.25c5.859 0 10.215-1.094 12.773-1.977.328.5 1.883 2.98 2.355 3.355 6.066 8.188 20.906 25.211 42.637 30.254 8.211 1.91 16.984 2.004 25.262.484a70.08 70.08 0 0 0 3.066-.641c.016 0 .043 0 .059-.012.027 0 .043-.016.074-.016 14-3.273 25.543-10.742 30.797-18.379l12.34-1.07c.867-.07 1.605-.648 1.84-1.469.234-.805-.09-1.664-.797-2.16l-10.289-7.168a1.06 1.06 0 0 0-.148-.086c-.441-3.5-1.766-7.367-3.945-11.391-3.77-6.945-10.527-14.711-18.668-19.422-.023-.016-.047-.027-.07-.043 24.207-1.203 41.879-8.258 49.789-20.555 5.918-9.219 5.227-20.187-2.031-30.992"/></g><g fill="#fff"><path d="M79.57 270.619c-5.203 0-9.91 2.848-9.91 7.895 0 5.242 3.492 7.102 9.453 8.582 3.227.797 4.215 1.973 4.215 3.34 0 1.441-1.445 2.43-3.344 2.43-2.047 0-4.059-1.062-4.516-3.531h-6.836c.418 5.887 4.898 8.543 11.543 8.543 5.277 0 10.289-2.656 10.289-7.895 0-4.027-2.355-6.91-8.125-8.277-4.328-1.027-5.543-2.051-5.543-3.723 0-1.594 1.063-2.352 2.621-2.352 2.238 0 3.379 1.441 3.68 3.605h6.836c-.57-4.859-3.457-8.617-10.363-8.617zm32.339.719c-1.402-.148-2.469-.187-4.102-.187H97.94v26.195h6.832v-9.187h3.035l4.102-.191c3.797-.453 7.25-3.148 7.25-8.312s-3.453-7.859-7.25-8.316zm-2.656 11.469c-.496.035-1.102.035-1.824.035h-2.656v-6.375h2.656c.723 0 1.328 0 1.824.035 1.746.152 2.77 1.18 2.77 3.152s-1.023 3-2.77 3.152zm0 0"/><use xlink:href="#B"/><path d="M174.314 291.576h-13.25V271.15h-6.832v26.195h20.082zm27.633 0h-13.25V271.15h-6.832v26.195h20.082zm35.037-8.468c2.582-.91 3.832-2.73 3.832-5.125 0-3.414-2.43-6.148-6.758-6.68-1.328-.152-1.934-.152-3.34-.152h-10.742v26.195h10.438l3.875-.152c3.527-.418 7.516-2.848 7.516-7.746 0-3.187-1.52-5.391-4.82-6.34zm-10.176-6.641h3.074c.609 0 1.215.035 1.711.113 1.289.188 2.086.91 2.086 2.391 0 1.555-.871 2.203-2.125 2.391-.496.078-1.062.113-1.672.113h-3.074zm5.391 15.527c-.492.035-1.102.035-1.707.035h-3.684v-5.617h3.492c.609 0 1.215 0 1.707.039 1.406.113 2.66 1.023 2.66 2.77 0 1.707-1.254 2.695-2.469 2.773zm0 0"/><use xlink:href="#B" x="123.441"/><use xlink:href="#B" x="151.492"/></g></svg>
